packages/core/src/svgs/tokens/mono/UMB.svg

<svg width="24" height="24" viewBox="0 0 24 24" fill="none" xmlns="http://www.w3.org/2000/svg">
<path d="M12 4.05957C12.453 4.05957 12.8236 4.38898 12.9118 4.82427C14.747 5.00074 16.4588 5.72428 17.8824 6.90663C17.9816 6.81592 18.0995 6.74797 18.2277 6.70753C18.3559 6.66708 18.4914 6.65513 18.6248 6.6725C18.758 6.68986 18.886 6.73613 18.9996 6.80807C19.1131 6.88 19.2096 6.97588 19.2824 7.08897C19.3935 7.26369 19.4456 7.46955 19.4307 7.67612C19.4159 7.88269 19.3351 8.07901 19.2 8.23604C20.3653 9.6818 21.0775 11.4398 21.247 13.289C21.4588 13.3302 21.6529 13.4419 21.7882 13.6125C21.9295 13.789 22 14.0008 22 14.2183C22 14.742 21.5823 15.1595 21.0647 15.1595C20.9271 15.1606 20.7911 15.1304 20.6667 15.0712C20.5425 15.0122 20.4331 14.9258 20.347 14.8184C20.2588 14.7082 20.1962 14.5799 20.1637 14.4425C20.131 14.3052 20.1294 14.1623 20.1589 14.0243L17.6 12.7655C17.5156 12.8669 17.4106 12.9494 17.292 13.0072C17.1733 13.065 17.0437 13.097 16.9117 13.1007C16.7798 13.1062 16.6482 13.0826 16.5263 13.0318C16.4043 12.981 16.295 12.9041 16.2059 12.8067L12.9235 14.1007C12.9471 14.336 12.8941 14.5655 12.7647 14.7536C12.6422 14.9454 12.4505 15.0824 12.2294 15.136V18.0302C12.4353 18.0773 12.6177 18.2008 12.7471 18.3713C12.8921 18.5592 12.9641 18.7929 12.95 19.0298C12.936 19.2666 12.8367 19.4903 12.6705 19.6595C12.583 19.7485 12.4786 19.8192 12.3635 19.8673C12.2483 19.9155 12.1248 19.9404 12 19.9404C11.8751 19.9404 11.7516 19.9155 11.6364 19.8673C11.5214 19.8192 11.417 19.7485 11.3294 19.6595C11.1529 19.4773 11.0471 19.2243 11.0471 18.9713C11.0471 18.5125 11.3588 18.136 11.7705 18.0302V15.136C11.553 15.0771 11.3588 14.9479 11.2293 14.7536C11.1029 14.5631 11.0486 14.3336 11.0764 14.1066L7.8706 12.8301C7.78844 12.9489 7.67975 13.0469 7.55314 13.1163C7.42653 13.1858 7.28548 13.2248 7.14119 13.2301C6.99669 13.2352 6.85305 13.2058 6.72213 13.1445C6.59122 13.0831 6.47676 12.9916 6.38823 12.8772L3.84707 14.0477C3.87135 14.184 3.86607 14.3238 3.83156 14.4579C3.79706 14.5918 3.73413 14.7167 3.64707 14.8243C3.56458 14.9236 3.46231 15.0045 3.34677 15.0622C3.23124 15.1197 3.10498 15.1526 2.97604 15.1587C2.84709 15.1647 2.7183 15.144 2.59785 15.0975C2.47741 15.0511 2.36796 14.9801 2.27648 14.889C2.18834 14.801 2.11851 14.6965 2.07105 14.5814C2.02359 14.4662 1.99945 14.3428 2.00001 14.2183C2.00001 14.0008 2.07649 13.789 2.21178 13.6184C2.34707 13.4419 2.54119 13.3302 2.75295 13.289C2.92943 11.4301 3.6353 9.69484 4.80001 8.2478C4.70315 8.13568 4.63342 8.00276 4.59621 7.85934C4.55901 7.71594 4.55535 7.56588 4.58549 7.42081C4.61565 7.27575 4.67881 7.13959 4.77007 7.02287C4.86133 6.90617 4.97826 6.81204 5.11178 6.7478C5.27605 6.67324 5.45876 6.6491 5.63677 6.67842C5.81477 6.70774 5.98008 6.7892 6.11178 6.91251C7.52206 5.73051 9.25672 5.00258 11.0882 4.82427C11.1353 4.60663 11.2471 4.41251 11.4118 4.27721C11.5765 4.13603 11.7823 4.05957 12 4.05957ZM11.5235 5.00074C11.5235 5.13605 11.5706 5.25957 11.6647 5.35369C11.7086 5.39905 11.7612 5.43512 11.8193 5.45976C11.8773 5.4844 11.9398 5.49709 12.0029 5.49709C12.0661 5.49709 12.1285 5.4844 12.1867 5.45976C12.2448 5.43512 12.2973 5.39905 12.3411 5.35369C12.4091 5.28497 12.4553 5.19788 12.4741 5.10316C12.4931 5.00845 12.4837 4.91029 12.4475 4.8208C12.4111 4.73131 12.3495 4.65442 12.2699 4.59963C12.1904 4.54483 12.0965 4.51456 12 4.51251C11.9362 4.51292 11.8731 4.52615 11.8145 4.55142C11.7559 4.57668 11.703 4.61346 11.6588 4.65957C11.5685 4.75258 11.518 4.87702 11.5176 5.00663L11.5235 5.00074ZM14.9118 8.87132L17.5882 7.78897C17.5529 7.55368 17.5882 7.38897 17.6294 7.28898C16.288 6.15674 14.6349 5.4574 12.8882 5.2831C12.8764 5.31839 12.8295 5.47722 12.7 5.62427L14.9177 8.87132H14.9118ZM9.14118 8.85369L11.3 5.63604C11.2144 5.53209 11.1504 5.41211 11.1117 5.2831C9.37064 5.45368 7.71766 6.15368 6.3706 7.28898C6.40589 7.38897 6.4353 7.57133 6.41765 7.73603L9.14118 8.85369ZM12.2235 9.34191C12.4589 9.38898 12.6648 9.53603 12.8 9.72421L14.4882 9.0478L12.3294 5.88898L12.2294 5.92427V9.33604H12.2235V9.34191ZM11.2589 9.72421C11.3765 9.5478 11.5647 9.4125 11.7705 9.35368V5.92427L11.6823 5.88898L9.56472 9.03603L11.2589 9.72421ZM18.5059 8.09486C18.7705 8.09486 18.9882 7.87721 18.9882 7.60663C18.9885 7.4769 18.9378 7.35223 18.847 7.25957C18.8031 7.21329 18.7502 7.17645 18.6915 7.15126C18.6329 7.12607 18.5697 7.11309 18.5059 7.11309C18.4421 7.11309 18.3789 7.12607 18.3202 7.15126C18.2616 7.17645 18.2086 7.21329 18.1647 7.25957C18.119 7.30617 18.083 7.36134 18.0589 7.42191C18.0346 7.4825 18.0226 7.54727 18.0235 7.6125C18.0235 7.87721 18.2411 8.09486 18.5059 8.09486ZM5.49413 8.09486C5.75883 8.09486 5.97648 7.87721 5.97648 7.60663C5.9768 7.4769 5.9261 7.35223 5.8353 7.25957C5.79142 7.21421 5.73887 7.17814 5.68076 7.1535C5.62266 7.12886 5.56018 7.11616 5.49707 7.11616C5.43396 7.11616 5.37148 7.12886 5.31338 7.1535C5.25527 7.17814 5.20271 7.21421 5.15883 7.25957C5.11317 7.30617 5.07718 7.36134 5.05295 7.42191C5.02871 7.4825 5.01672 7.54727 5.01765 7.6125C5.01765 7.87721 5.22942 8.09486 5.49413 8.09486ZM5.49413 8.55369C5.38762 8.55186 5.28221 8.53197 5.18236 8.49486C4.05788 9.87052 3.36785 11.5496 3.20001 13.3184C3.27648 13.3361 3.48825 13.4125 3.65883 13.6302L6.2 12.4537C6.172 12.2899 6.1865 12.1218 6.24213 11.9652C6.29774 11.8086 6.39261 11.669 6.51765 11.5596C6.64135 11.4536 6.791 11.3827 6.95123 11.3537C7.11144 11.3247 7.27649 11.339 7.42942 11.3949L8.87647 9.2478L6.24707 8.17721C6.11765 8.36544 5.8353 8.56545 5.5 8.56545V8.55956L5.49413 8.55369ZM16.5588 11.2713C16.7149 11.2075 16.8858 11.1887 17.052 11.2167C17.2183 11.2447 17.3734 11.3187 17.5 11.4301C17.6282 11.5417 17.7238 11.686 17.7767 11.8475C17.8294 12.0091 17.8375 12.182 17.8 12.3478L20.3529 13.6066C20.5176 13.4066 20.7235 13.3302 20.8 13.3125C20.6299 11.5478 19.9399 9.87313 18.8176 8.50074C18.7177 8.53604 18.2 8.70074 17.7823 8.20663L15.1823 9.25956L16.5588 11.2713ZM7.81177 11.6537L7.8706 11.7302L11.0882 10.4242C11.0646 10.3066 11.0823 10.1949 11.0882 10.1478L9.31176 9.41839L7.80588 11.6537H7.81177ZM16.0706 11.7007C16.105 11.6426 16.1443 11.5874 16.1882 11.536L14.7529 9.43603L12.9706 10.1537C12.9765 10.1949 12.9883 10.3184 12.9706 10.4301L16.0706 11.7007ZM12.0294 10.7948C12.1651 10.7948 12.2953 10.741 12.3913 10.6449C12.4873 10.549 12.5412 10.4189 12.5412 10.2831C12.5412 10.1474 12.4873 10.0172 12.3913 9.92117C12.2953 9.82523 12.1651 9.77129 12.0294 9.77129C11.9 9.77129 11.7705 9.83017 11.6765 9.92433C11.5828 10.0203 11.5301 10.149 11.5294 10.2831C11.5294 10.5772 11.7646 10.7948 12.0294 10.7948ZM11.2412 13.6714C11.4352 13.3948 11.6823 13.3184 11.7705 13.3008V11.2125C11.5647 11.1537 11.3824 11.0243 11.2589 10.8478L8.03531 12.1536C8.05294 12.2714 8.03531 12.3595 8.03531 12.4007L11.2412 13.6714ZM12.2294 13.3008C12.3176 13.3243 12.5588 13.3889 12.7588 13.6714L15.9882 12.3949C15.953 12.2771 15.953 12.142 15.953 12.142L12.8 10.8478C12.6648 11.0419 12.4589 11.1772 12.2294 11.2302V13.3008ZM16.8882 12.642C16.9828 12.6417 17.075 12.613 17.153 12.5596C17.2327 12.5058 17.2948 12.4296 17.3314 12.3407C17.3681 12.2518 17.3775 12.1539 17.3589 12.0596C17.3387 11.9659 17.2916 11.8799 17.2235 11.8125C17.1578 11.745 17.0732 11.6989 16.981 11.6801C16.8886 11.6611 16.7928 11.6705 16.7058 11.7066C16.6174 11.7427 16.5417 11.804 16.4883 11.8831C16.4371 11.9639 16.4104 12.058 16.4118 12.1536C16.4118 12.4243 16.6235 12.642 16.8882 12.642ZM7.11177 12.7713C7.38236 12.7713 7.59413 12.5537 7.59413 12.289C7.59506 12.2238 7.58307 12.159 7.55884 12.0984C7.5346 12.0378 7.49861 11.9826 7.45295 11.9361C7.40907 11.8906 7.35651 11.8545 7.2984 11.83C7.2403 11.8053 7.17782 11.7926 7.11471 11.7926C7.0516 11.7926 6.98912 11.8053 6.93102 11.83C6.87291 11.8545 6.82035 11.8906 6.77647 11.9361C6.73081 11.9826 6.69482 12.0378 6.6706 12.0984C6.64636 12.159 6.63436 12.2238 6.63529 12.289C6.63529 12.5537 6.84706 12.7713 7.11177 12.7713ZM21.0647 14.7066C21.3353 14.7066 21.5471 14.489 21.5471 14.2183C21.5468 14.0888 21.4961 13.9643 21.4058 13.8714C21.3615 13.8258 21.3084 13.7896 21.2498 13.7649C21.1913 13.7401 21.1283 13.7275 21.0647 13.7275C21.0011 13.7275 20.9382 13.7401 20.8796 13.7649C20.821 13.7896 20.7679 13.8258 20.7235 13.8714C20.6318 13.9658 20.5811 14.0926 20.5823 14.2242C20.5823 14.489 20.8059 14.7066 21.0647 14.7066ZM12 14.7066C12.2647 14.7066 12.4764 14.489 12.4764 14.2183C12.4752 14.0907 12.4247 13.9684 12.3353 13.8773C12.2916 13.8328 12.2393 13.7974 12.1818 13.7734C12.1242 13.7492 12.0623 13.7369 12 13.7369C11.9376 13.7369 11.8758 13.7492 11.8183 13.7734C11.7607 13.7974 11.7085 13.8328 11.6647 13.8773C11.5754 13.9684 11.5247 14.0907 11.5235 14.2183C11.5235 14.489 11.7353 14.7066 12 14.7066ZM2.9353 14.7066C3.19413 14.7066 3.4059 14.489 3.4059 14.2183C3.4078 14.0895 3.35924 13.965 3.2706 13.8714C3.22672 13.8259 3.17416 13.7898 3.11606 13.7653C3.05794 13.7406 2.99548 13.7279 2.93237 13.7279C2.86926 13.7279 2.80678 13.7406 2.74868 13.7653C2.69057 13.7898 2.63801 13.8259 2.59413 13.8714C2.54847 13.9179 2.51248 13.9731 2.48824 14.0337C2.46401 14.0943 2.45202 14.159 2.45295 14.2242C2.45295 14.489 2.66472 14.7066 2.9353 14.7066ZM12 19.4714C12.2765 19.4714 12.5001 19.2478 12.5001 18.9713C12.5009 18.8352 12.448 18.7041 12.3529 18.6067C12.3068 18.5598 12.2519 18.5228 12.1912 18.4975C12.1307 18.4723 12.0656 18.4594 12 18.4595C11.9298 18.4494 11.858 18.4546 11.7899 18.4749C11.7218 18.4952 11.6591 18.5301 11.6058 18.5771C11.5513 18.626 11.508 18.6858 11.4785 18.7528C11.4491 18.8198 11.4343 18.8923 11.4352 18.9654C11.4366 19.0379 11.4531 19.1093 11.4834 19.1752C11.5137 19.2409 11.5575 19.2998 11.6117 19.3478C11.6642 19.3945 11.7258 19.4296 11.7928 19.4509C11.8596 19.4722 11.9303 19.4792 12 19.4714Z" fill="white"/>
</svg>

<svg xmlns="http://www.w3.org/2000/svg" width="24" height="24" fill="none" viewBox="0 0 24 24">
    <path fill="#fff" d="M12 4.06c.453 0 .824.329.912.764 1.835.177 3.547.9 4.97 2.083a.923.923 0 0 1 1.4.182.965.965 0 0 1-.082 1.147 9.4 9.4 0 0 1 2.047 5.053.9.9 0 0 1 .541.324.96.96 0 0 1 .212.605.935.935 0 0 1-1.333.853.9.9 0 0 1-.32-.253.95.95 0 0 1-.188-.794L17.6 12.766a.932.932 0 0 1-1.394.04l-3.282 1.295a.97.97 0 0 1-.16.653.88.88 0 0 1-.535.382v2.894a.9.9 0 0 1 .518.341.98.98 0 0 1-.076 1.289.94.94 0 0 1-1.035.207.9.9 0 0 1-.307-.207 1 1 0 0 1-.282-.689c0-.459.312-.835.723-.94v-2.895a.937.937 0 0 1-.694-1.03L7.871 12.83a.93.93 0 0 1-.73.4.91.91 0 0 1-.753-.353l-2.54 1.17a.97.97 0 0 1-.2.777A.93.93 0 0 1 2 14.218c0-.217.076-.429.212-.6a.9.9 0 0 1 .54-.329A9.4 9.4 0 0 1 4.8 8.248a.965.965 0 0 1 .312-1.5.91.91 0 0 1 1 .165 9.1 9.1 0 0 1 4.976-2.089.97.97 0 0 1 .324-.547A.9.9 0 0 1 12 4.06m-.476.94a.49.49 0 0 0 .479.497.47.47 0 0 0 .338-.143.492.492 0 0 0-.071-.754.5.5 0 0 0-.27-.087.48.48 0 0 0-.341.147.5.5 0 0 0-.141.347zm3.388 3.871 2.676-1.082c-.035-.235 0-.4.041-.5a8.7 8.7 0 0 0-4.74-2.006c-.013.035-.06.194-.189.341l2.218 3.247zm-5.77-.017L11.3 5.636a1 1 0 0 1-.188-.353A8.67 8.67 0 0 0 6.37 7.29c.035.1.064.282.047.447zm3.082.488a.95.95 0 0 1 .576.382l1.688-.676-2.159-3.159-.1.035v3.412h-.005zm-.965.382a.93.93 0 0 1 .511-.37v-3.43l-.088-.035-2.117 3.147zm7.247-1.63a.486.486 0 0 0 .482-.487.494.494 0 0 0-.482-.494.47.47 0 0 0-.341.147.5.5 0 0 0-.142.353c0 .264.218.482.483.482m-13.012 0a.486.486 0 0 0 .482-.487.49.49 0 0 0-.295-.453.47.47 0 0 0-.522.106.5.5 0 0 0-.141.353.48.48 0 0 0 .476.482m0 .46a1 1 0 0 1-.312-.06A8.96 8.96 0 0 0 3.2 13.319a.88.88 0 0 1 .459.312L6.2 12.454a.97.97 0 0 1 .318-.894.92.92 0 0 1 .911-.165l1.447-2.147-2.629-1.07a.95.95 0 0 1-.747.387V8.56zM16.56 11.27a.91.91 0 0 1 .941.16.94.94 0 0 1 .3.917l2.553 1.259a.9.9 0 0 1 .447-.294A8.96 8.96 0 0 0 18.818 8.5a.92.92 0 0 1-1.036-.294l-2.6 1.053zm-8.747.383.059.076 3.217-1.306c-.023-.117-.006-.23 0-.276l-1.776-.73-1.506 2.236zm8.259.047q.051-.088.117-.165l-1.435-2.1-1.782.718c.005.04.017.164 0 .276zm-4.042-.906a.511.511 0 1 0 0-1.024.51.51 0 0 0-.5.512c0 .294.236.512.5.512m-.788 2.876a.88.88 0 0 1 .53-.37v-2.088a.94.94 0 0 1-.512-.365l-3.224 1.306c.018.117 0 .206 0 .247zm.988-.37a.9.9 0 0 1 .53.37l3.23-1.276c-.036-.118-.036-.253-.036-.253L12.8 10.848a.96.96 0 0 1-.57.382zm4.66-.659a.49.49 0 0 0 .47-.582.5.5 0 0 0-.378-.38.48.48 0 0 0-.493.203.5.5 0 0 0-.076.27c0 .271.212.489.476.489m-9.777.13a.48.48 0 0 0 .482-.483.49.49 0 0 0-.296-.459.47.47 0 0 0-.522.106.5.5 0 0 0-.14.353.48.48 0 0 0 .476.482m13.953 1.935c.27 0 .482-.218.482-.489a.5.5 0 0 0-.297-.453.47.47 0 0 0-.526.106.488.488 0 0 0 .341.835m-9.065 0a.48.48 0 0 0 .476-.489.49.49 0 0 0-.294-.445.47.47 0 0 0-.517.104.5.5 0 0 0-.141.341.48.48 0 0 0 .476.489m-9.065 0a.48.48 0 0 0 .47-.489.5.5 0 0 0-.134-.347.47.47 0 0 0-.522-.106.49.49 0 0 0-.296.459.48.48 0 0 0 .482.483M12 19.47a.5.5 0 0 0 .5-.5.52.52 0 0 0-.147-.364.5.5 0 0 0-.353-.148.49.49 0 0 0-.521.294.513.513 0 0 0 .521.718"/>
</svg>
